X: 09050
T: JACK BEARD'S JIG
C: Bob McQuillen 10 July 92
B: Bob's Note Book 9 #50
R: jig
Z: 2018 John Chambers <jc:trillian.mit.edu>
M: 6/8
L: 1/8
K: G
GE \
| DGG EGG | DGA Bde | ded dBd | gdB AGE |
| DGG EGG | DGA BGB | ded dBG | AcB A:|
|: ed \
| B2D GBd | c2A A2B | cde def | gdB Adc |
| BGG GBd | cAA A2B | cde def | g3- g2 :|
%%begintext align
%% Jack is a friend
%% of many years. He and Dave [Stone] share
%% in putting on the Folk Show on Radio Station
%% WEVO in Concord on Sunday nights, he's a
%% talented musician, and he sure loves to dance.
%% I hope this tune repays him for his many
%% kindnesses to me over the years.
%%endtext

%%sep 1 1 500

%%sep 1 1 500

